fa-link.svg

<svg width="25" height="24" viewBox="0 0 25 24" fill="none" xmlns="http://www.w3.org/2000/svg">
<path d="M17.6669 12.2279L15.4256 14.4692C14.295 15.5799 12.4901 15.5799 11.3793 14.4692C10.3281 13.3981 10.2686 11.7122 11.2405 10.5816L11.3397 10.4626C11.5182 10.2642 11.8157 10.2444 12.014 10.4229C12.2124 10.6014 12.2322 10.8989 12.0537 11.0973L11.9744 11.1965C11.3 11.9502 11.3397 13.0807 12.0537 13.7948C12.7876 14.5287 13.9975 14.5287 14.7512 13.7948L16.9926 11.5535C17.7264 10.7998 17.7264 9.60967 16.9926 8.85595C16.2785 8.16174 15.1479 8.12207 14.3942 8.77662L14.2752 8.87579C14.0769 9.0543 13.7793 9.03447 13.6008 8.83612C13.4223 8.63777 13.4421 8.34025 13.6405 8.16174L13.7595 8.06257C14.8901 7.07083 16.5959 7.13033 17.6669 8.18157C18.7777 9.29232 18.7777 11.0973 17.6669 12.2279ZM7.33306 11.7717L9.59421 9.53033C10.705 8.41959 12.5099 8.41959 13.6207 9.53033C14.6917 10.5816 14.7512 12.2874 13.7595 13.4179L13.6405 13.5369C13.4818 13.7353 13.1645 13.775 12.9661 13.5965C12.7678 13.4179 12.7479 13.1204 12.9264 12.9221L13.0455 12.8031C13.7 12.0493 13.6603 10.9188 12.9463 10.2047C12.2124 9.451 11.0025 9.451 10.2686 10.2047L8.00744 12.446C7.27355 13.1799 7.27355 14.3898 8.00744 15.1436C8.72149 15.8378 9.85207 15.8774 10.6058 15.2229L10.7248 15.1237C10.9231 14.9452 11.2207 14.965 11.3992 15.1634C11.5777 15.3617 11.5579 15.6593 11.3595 15.8378L11.2405 15.9369C10.1099 16.9287 8.40413 16.8692 7.33306 15.8179C6.22231 14.7072 6.22231 12.8824 7.33306 11.7717Z" fill="black"/>
</svg>

<svg xmlns="http://www.w3.org/2000/svg" width="25" height="24" fill="none"><path fill="#000" d="m17.667 12.228-2.241 2.241c-1.131 1.11-2.936 1.11-4.047 0a2.87 2.87 0 0 1-.138-3.887l.099-.12a.474.474 0 0 1 .674-.04.474.474 0 0 1 .04.675l-.08.1a1.88 1.88 0 0 0 .08 2.598c.734.734 1.944.734 2.697 0l2.242-2.242a1.93 1.93 0 0 0 0-2.697 1.92 1.92 0 0 0-2.599-.08l-.119.1a.474.474 0 0 1-.674-.04.474.474 0 0 1 .04-.674l.118-.1a2.876 2.876 0 0 1 3.908.12c1.11 1.11 1.11 2.915 0 4.046m-10.334-.456L9.594 9.53a2.85 2.85 0 0 1 4.027 0 2.83 2.83 0 0 1 .138 3.888l-.119.119a.474.474 0 0 1-.674.06.474.474 0 0 1-.04-.675l.12-.119a1.903 1.903 0 0 0-.1-2.598 1.87 1.87 0 0 0-2.677 0l-2.262 2.241c-.733.734-.733 1.944 0 2.698a1.92 1.92 0 0 0 2.599.079l.119-.1a.474.474 0 0 1 .674.04.474.474 0 0 1-.04.675l-.118.099a2.875 2.875 0 0 1-3.908-.12 2.873 2.873 0 0 1 0-4.045"/></svg>
